assets/images/icons/documentation/icn-window.svg

<svg xmlns="http://www.w3.org/2000/svg" xmlns:xlink="http://www.w3.org/1999/xlink" preserveAspectRatio="xMidYMid" width="32" height="32" viewBox="0 0 32 32">
  <defs>
    <style>

      .cls-2 {
        fill: #9daab3;
      }
    </style>
  </defs>
  <path d="M30.000,32.000 C30.000,32.000 2.000,32.000 2.000,32.000 C0.895,32.000 0.000,31.105 0.000,30.000 C0.000,30.000 0.000,6.000 0.000,6.000 C0.000,6.000 0.000,4.000 0.000,4.000 C0.000,4.000 0.000,2.000 0.000,2.000 C0.000,0.895 0.895,0.000 2.000,0.000 C2.000,0.000 30.000,0.000 30.000,0.000 C31.105,0.000 32.000,0.895 32.000,2.000 C32.000,2.000 32.000,4.000 32.000,4.000 C32.000,4.000 32.000,6.000 32.000,6.000 C32.000,6.000 32.000,30.000 32.000,30.000 C32.000,31.105 31.105,32.000 30.000,32.000 ZM30.000,3.000 C30.000,2.448 29.552,2.000 29.000,2.000 C29.000,2.000 3.000,2.000 3.000,2.000 C2.448,2.000 2.000,2.448 2.000,3.000 C2.000,3.000 2.000,4.000 2.000,4.000 C2.000,4.000 30.000,4.000 30.000,4.000 C30.000,4.000 30.000,3.000 30.000,3.000 ZM30.000,6.000 C30.000,6.000 2.000,6.000 2.000,6.000 C2.000,6.000 2.000,29.000 2.000,29.000 C2.000,29.552 2.448,30.000 3.000,30.000 C3.000,30.000 29.000,30.000 29.000,30.000 C29.552,30.000 30.000,29.552 30.000,29.000 C30.000,29.000 30.000,6.000 30.000,6.000 ZM20.000,9.000 C20.000,9.000 26.000,9.000 26.000,9.000 C26.000,9.000 26.000,11.000 26.000,11.000 C26.000,11.000 20.000,11.000 20.000,11.000 C20.000,11.000 20.000,9.000 20.000,9.000 ZM11.000,14.000 C11.000,14.000 18.000,14.000 18.000,14.000 C18.000,14.000 18.000,16.000 18.000,16.000 C18.000,16.000 11.000,16.000 11.000,16.000 C11.000,16.000 11.000,14.000 11.000,14.000 ZM14.000,9.000 C14.000,9.000 17.000,9.000 17.000,9.000 C17.000,9.000 17.000,11.000 17.000,11.000 C17.000,11.000 14.000,11.000 14.000,11.000 C14.000,11.000 14.000,9.000 14.000,9.000 ZM5.000,9.000 C5.000,9.000 11.000,9.000 11.000,9.000 C11.000,9.000 11.000,11.000 11.000,11.000 C11.000,11.000 5.000,11.000 5.000,11.000 C5.000,11.000 5.000,9.000 5.000,9.000 ZM8.000,16.000 C8.000,16.000 5.000,16.000 5.000,16.000 C5.000,16.000 5.000,14.000 5.000,14.000 C5.000,14.000 8.000,14.000 8.000,14.000 C8.000,14.000 8.000,16.000 8.000,16.000 Z" id="path-1" class="cls-2" fill-rule="evenodd"/>
</svg>

<svg xmlns="http://www.w3.org/2000/svg" preserveAspectRatio="xMidYMid" width="32" height="32" viewBox="0 0 32 32"><defs><style>.cls-2{fill:#9daab3}</style></defs><path d="M30 32H2a2 2 0 0 1-2-2V2a2 2 0 0 1 2-2h28a2 2 0 0 1 2 2v28a2 2 0 0 1-2 2zm0-29a1 1 0 0 0-1-1H3a1 1 0 0 0-1 1v1h28V3zm0 3H2v23a1 1 0 0 0 1 1h26a1 1 0 0 0 1-1V6zM20 9h6v2h-6V9zm-9 5h7v2h-7v-2zm3-5h3v2h-3V9zM5 9h6v2H5V9zm3 7H5v-2h3v2z" id="path-1" class="cls-2" fill-rule="evenodd"/></svg>
